svg/300/outlined/sound_detection_glass_break-fill.svg

<svg xmlns="http://www.w3.org/2000/svg" width="48" height="48" viewBox="0 -960 960 960"><path d="M140.001-312.77v-507.229h679.998v112.078l-281.23 314.537-159.384-159.385L140.001-312.77Zm0 172.769v-106.001L380-487.001 540.231-326.77l279.768-313.075v499.844H140.001Z"/></svg>

<svg xmlns="http://www.w3.org/2000/svg" width="48" height="48" viewBox="0 -960 960 960"><path d="M140-312.77V-820h680v112.08L538.77-393.38 379.38-552.77 140-312.77ZM140-140v-106l240-241 160.23 160.23L820-639.85V-140H140Z"/></svg>
